X: 123
T: Pollonesse #123
M: 3/4
L: 1/16
R: Pollonesse
K: D
Q: 110
A4F2FD G2GE|A4F2FD G2GE|FDFA dcde fedc|1dcdf edcB AGFE:|2afec d4D4|]
|:e4c2cA d2dB|e4c2cA d2dB|c2A2 c2e2 a2c2|dcdf edcB AGFE|
A4F2FD G2GE|A4F2FD G2GE|FDFA dcde fedc|afec d4D4:|
